X: 053
M: C
L: 1/8
K: D
V: 1
V: 2 clef=bass middle=d
z !Segno!|:\
d2d2 g2G2 | d2d2 [e2A2][e2A2] | d2d2 g2g2 | f2d2 [e2A2][e2A2] :|
d2f2 a2f2 | d2d2 A2A2 | d2a2 g2f2 | a2f2 [e2A2][e2A2] !Segno!y |]


